public/svg/delever2.svg

<svg width="252" height="49" viewBox="0 0 252 49" fill="none" xmlns="http://www.w3.org/2000/svg">
<path d="M18.44 2.88C23.176 2.88 27.3147 3.84 30.856 5.76C34.44 7.63733 37.192 10.2827 39.112 13.696C41.032 17.1093 41.992 21.0133 41.992 25.408C41.992 29.76 41.0107 33.6427 39.048 37.056C37.128 40.4693 34.376 43.1573 30.792 45.12C27.2507 47.04 23.1333 48 18.44 48H0.584V2.88H18.44ZM17.48 36.928C21.1493 36.928 24.0293 35.9253 26.12 33.92C28.2107 31.9147 29.256 29.0773 29.256 25.408C29.256 21.696 28.2107 18.8373 26.12 16.832C24.0293 14.784 21.1493 13.76 17.48 13.76H13.128V36.928H17.48ZM81.9505 29.632C81.9505 30.6133 81.8865 31.5947 81.7585 32.576H58.0145C58.1425 34.5387 58.6758 36.0107 59.6145 36.992C60.5958 37.9307 61.8332 38.4 63.3265 38.4C65.4172 38.4 66.9105 37.4613 67.8065 35.584H81.1825C80.6278 38.0587 79.5398 40.2773 77.9185 42.24C76.3398 44.16 74.3345 45.6747 71.9025 46.784C69.4705 47.8933 66.7825 48.448 63.8385 48.448C60.2972 48.448 57.1398 47.7013 54.3665 46.208C51.6358 44.7147 49.4812 42.5813 47.9025 39.808C46.3665 37.0347 45.5985 33.7707 45.5985 30.016C45.5985 26.2613 46.3665 23.0187 47.9025 20.288C49.4385 17.5147 51.5718 15.3813 54.3025 13.888C57.0758 12.3947 60.2545 11.648 63.8385 11.648C67.3798 11.648 70.5158 12.3733 73.2465 13.824C75.9772 15.2747 78.1105 17.3653 79.6465 20.096C81.1825 22.784 81.9505 25.9627 81.9505 29.632ZM69.1505 26.496C69.1505 24.96 68.6385 23.7653 67.6145 22.912C66.5905 22.016 65.3105 21.568 63.7745 21.568C62.2385 21.568 60.9798 21.9947 59.9985 22.848C59.0172 23.6587 58.3772 24.8747 58.0785 26.496H69.1505ZM99.628 0.639999V48H87.084V0.639999H99.628ZM141.076 29.632C141.076 30.6133 141.012 31.5947 140.884 32.576H117.14C117.268 34.5387 117.801 36.0107 118.74 36.992C119.721 37.9307 120.958 38.4 122.452 38.4C124.542 38.4 126.036 37.4613 126.932 35.584H140.308C139.753 38.0587 138.665 40.2773 137.044 42.24C135.465 44.16 133.46 45.6747 131.028 46.784C128.596 47.8933 125.908 48.448 122.964 48.448C119.422 48.448 116.265 47.7013 113.492 46.208C110.761 44.7147 108.606 42.5813 107.028 39.808C105.492 37.0347 104.724 33.7707 104.724 30.016C104.724 26.2613 105.492 23.0187 107.028 20.288C108.564 17.5147 110.697 15.3813 113.428 13.888C116.201 12.3947 119.38 11.648 122.964 11.648C126.505 11.648 129.641 12.3733 132.372 13.824C135.102 15.2747 137.236 17.3653 138.772 20.096C140.308 22.784 141.076 25.9627 141.076 29.632ZM128.276 26.496C128.276 24.96 127.764 23.7653 126.74 22.912C125.716 22.016 124.436 21.568 122.9 21.568C121.364 21.568 120.105 21.9947 119.124 22.848C118.142 23.6587 117.502 24.8747 117.204 26.496H128.276ZM163.425 36.16L170.145 12.096H183.521L171.169 48H155.553L143.201 12.096H156.577L163.425 36.16ZM222.076 29.632C222.076 30.6133 222.012 31.5947 221.884 32.576H198.14C198.268 34.5387 198.801 36.0107 199.74 36.992C200.721 37.9307 201.958 38.4 203.452 38.4C205.542 38.4 207.036 37.4613 207.932 35.584H221.308C220.753 38.0587 219.665 40.2773 218.044 42.24C216.465 44.16 214.46 45.6747 212.028 46.784C209.596 47.8933 206.908 48.448 203.964 48.448C200.422 48.448 197.265 47.7013 194.492 46.208C191.761 44.7147 189.606 42.5813 188.028 39.808C186.492 37.0347 185.724 33.7707 185.724 30.016C185.724 26.2613 186.492 23.0187 188.028 20.288C189.564 17.5147 191.697 15.3813 194.428 13.888C197.201 12.3947 200.38 11.648 203.964 11.648C207.505 11.648 210.641 12.3733 213.372 13.824C216.102 15.2747 218.236 17.3653 219.772 20.096C221.308 22.784 222.076 25.9627 222.076 29.632ZM209.276 26.496C209.276 24.96 208.764 23.7653 207.74 22.912C206.716 22.016 205.436 21.568 203.9 21.568C202.364 21.568 201.105 21.9947 200.124 22.848C199.142 23.6587 198.502 24.8747 198.204 26.496H209.276ZM239.753 18.432C241.161 16.384 242.868 14.7627 244.873 13.568C246.878 12.3733 249.033 11.776 251.337 11.776V25.152H247.817C245.086 25.152 243.06 25.6853 241.737 26.752C240.414 27.8187 239.753 29.6747 239.753 32.32V48H227.209V12.096H239.753V18.432Z" fill="#FF5722"/>
</svg>

<svg xmlns="http://www.w3.org/2000/svg" width="252" height="49" fill="none" xmlns:v="https://vecta.io/nano"><path d="M18.44 2.88c4.736 0 8.875.96 12.416 2.88 3.584 1.877 6.336 4.523 8.256 7.936s2.88 7.317 2.88 11.712c0 4.352-.981 8.235-2.944 11.648-1.92 3.413-4.672 6.101-8.256 8.064C27.251 47.04 23.133 48 18.44 48H.584V2.88H18.44zm-.96 34.048c3.669 0 6.549-1.003 8.64-3.008s3.136-4.843 3.136-8.512c0-3.712-1.045-6.571-3.136-8.576-2.091-2.048-4.971-3.072-8.64-3.072h-4.352v23.168h4.352zm64.471-7.296a22.74 22.74 0 0 1-.192 2.944H58.015c.128 1.963.661 3.435 1.6 4.416.981.939 2.219 1.408 3.712 1.408 2.091 0 3.584-.939 4.48-2.816h13.376c-.555 2.475-1.643 4.693-3.264 6.656-1.579 1.92-3.584 3.435-6.016 4.544s-5.12 1.664-8.064 1.664c-3.541 0-6.699-.747-9.472-2.24-2.731-1.493-4.885-3.627-6.464-6.4-1.536-2.773-2.304-6.037-2.304-9.792s.768-6.997 2.304-9.728c1.536-2.773 3.669-4.907 6.4-6.4 2.773-1.493 5.952-2.24 9.536-2.24 3.541 0 6.677.725 9.408 2.176s4.864 3.541 6.4 6.272c1.536 2.688 2.304 5.867 2.304 9.536zm-12.8-3.136c0-1.536-.512-2.731-1.536-3.584-1.024-.896-2.304-1.344-3.84-1.344s-2.795.427-3.776 1.28c-.981.811-1.621 2.027-1.92 3.648h11.072zM99.628.64V48H87.084V.64h12.544zm41.448 28.992a22.74 22.74 0 0 1-.192 2.944H117.14c.128 1.963.661 3.435 1.6 4.416.981.939 2.218 1.408 3.712 1.408 2.09 0 3.584-.939 4.48-2.816h13.376a15.71 15.71 0 0 1-3.264 6.656c-1.579 1.92-3.584 3.435-6.016 4.544s-5.12 1.664-8.064 1.664c-3.542 0-6.699-.747-9.472-2.24-2.731-1.493-4.886-3.627-6.464-6.4-1.536-2.773-2.304-6.037-2.304-9.792s.768-6.997 2.304-9.728c1.536-2.773 3.669-4.907 6.4-6.4 2.773-1.493 5.952-2.24 9.536-2.24 3.541 0 6.677.725 9.408 2.176s4.864 3.541 6.4 6.272c1.536 2.688 2.304 5.867 2.304 9.536zm-12.8-3.136c0-1.536-.512-2.731-1.536-3.584-1.024-.896-2.304-1.344-3.84-1.344s-2.795.427-3.776 1.28c-.982.811-1.622 2.027-1.92 3.648h11.072zm35.149 9.664l6.72-24.064h13.376L171.169 48h-15.616l-12.352-35.904h13.376l6.848 24.064zm58.651-6.528a22.74 22.74 0 0 1-.192 2.944H198.14c.128 1.963.661 3.435 1.6 4.416.981.939 2.218 1.408 3.712 1.408 2.09 0 3.584-.939 4.48-2.816h13.376a15.71 15.71 0 0 1-3.264 6.656c-1.579 1.92-3.584 3.435-6.016 4.544s-5.12 1.664-8.064 1.664c-3.542 0-6.699-.747-9.472-2.24-2.731-1.493-4.886-3.627-6.464-6.4-1.536-2.773-2.304-6.037-2.304-9.792s.768-6.997 2.304-9.728c1.536-2.773 3.669-4.907 6.4-6.4 2.773-1.493 5.952-2.24 9.536-2.24 3.541 0 6.677.725 9.408 2.176s4.864 3.541 6.4 6.272c1.536 2.688 2.304 5.867 2.304 9.536zm-12.8-3.136c0-1.536-.512-2.731-1.536-3.584-1.024-.896-2.304-1.344-3.84-1.344s-2.795.427-3.776 1.28c-.982.811-1.622 2.027-1.92 3.648h11.072zm30.477-8.064c1.408-2.048 3.115-3.669 5.12-4.864a12.41 12.41 0 0 1 6.464-1.792v13.376h-3.52c-2.731 0-4.757.533-6.08 1.6s-1.984 2.923-1.984 5.568V48h-12.544V12.096h12.544v6.336z" fill="#ff5722"/></svg>
